symbolic/24x24/apps/trine.svg

<svg xmlns="http://www.w3.org/2000/svg" width="24" height="24" version="1">
 <g transform="translate(2.0041616,1)">
  <path style="opacity:0.2" d="m 1,1.5 c 0,0 -1.1688e-4,3.9999219 0.017578,4.0449219 -0.1710732,1.6542035 0.677909,1.8913004 2.1796875,1.984375 0.4252,-0.0281 0.7781125,-0.1094 1.1328125,-0.4375 C 4.8922781,6.4155969 5,6.5 5,6.5 l -1,0 C 4.1179,6.9731 3.2731906,7.1852094 3.0253906,6.7871094 2.0923906,5.1466094 5.1893491,3.6893491 8,5 L 7.9257812,18.548828 C 7.4612812,19.606828 7.1647,20.027 6,20.5 l 0,1 c 2.4714,-0.786 5,-1 8,-1 l 0,-1 c -1.034,-0.183 -1.878,-1.051 -2,-2 l 0,-12 4.175781,0 C 16.671481,5.511003 16.8741,5.34369 17,6.5 l 2,0 c -0.559,-1.3089 -0.933594,-4 -0.933594,-4 0,0 -5.218528,0.027775 -9.925781,-0.2480469 C 4.4349582,2.0348194 1.0002995,1.5000595 1,1.5 Z"/>
  <path style="fill:#fecd38" d="m 1,1 c 0,0 -1.1688e-4,3.9999219 0.017578,4.0449219 -0.1710732,1.6542035 0.677909,1.8913004 2.1796875,1.984375 0.4252,-0.0281 0.7781125,-0.1094 1.1328125,-0.4375 C 4.8922781,5.9155969 5,6 5,6 L 4,6 C 4.1179,6.4731 3.2731906,6.6852094 3.0253906,6.2871094 2.0923906,4.6466094 5.1893491,3.1893491 8,4.5 L 7.9257812,18.048828 C 7.4612812,19.106828 7.1647,19.527 6,20 l 0,1 c 2.4714,-0.786 5,-1 8,-1 l 0,-1 C 12.966,18.817 12.122,17.949 12,17 L 12,5 16.175781,5 C 16.671481,5.011003 16.8741,4.84369 17,6 l 2,0 C 18.441,4.6911 18.066406,2 18.066406,2 c 0,0 -5.218528,0.027775 -9.925781,-0.2480469 C 4.4349582,1.5348194 1.0002995,1.0000595 1,1 Z"/>
  <path style="opacity:0.2;fill:#ffffff" d="M 1,1 C 1,1 1.00192,1.3927887 1.00195,1.5 1.00527,1.5005292 4.4365872,2.0349149 8.140625,2.2519531 12.847878,2.527775 18.066406,2.5 18.066406,2.5 c 0,0 0.308742,2.108771 0.771485,3.5 L 19,6 C 18.441,4.6911 18.066406,2 18.066406,2 c 0,0 -5.218528,0.027775 -9.925781,-0.2480469 C 4.4349582,1.5348194 1.0002995,1.0000595 1,1 Z M 7.9980469,4.9980469 7.9257812,18.048828 C 7.4612812,19.106828 7.1647,19.527 6,20 l 0,0.5 C 7.1647,20.027 7.4612812,19.606828 7.9257812,18.548828 L 8,5 C 7.9992176,4.9996351 7.99883,4.99841 7.99805,4.99805 Z M 1.015625,5.1054688 C 0.9964458,5.3215866 0.9974158,5.5106018 1.013675,5.6796875 1.016995,5.6321905 1.012405,5.5949795 1.017585,5.5449219 1.015665,5.5400319 1.0171568,5.1935194 1.015635,5.1054688 Z m 1.875,0.8359374 C 2.824889,6.2078731 2.858839,6.4942612 3.0253906,6.7871094 3.1251996,6.9474567 3.3220917,6.9874816 3.5136719,6.9726562 3.5883809,6.9592732 3.6688308,6.9559332 3.7402344,6.9335942 3.9209675,6.8543025 4.0506006,6.7030462 4,6.5 l 0.4140625,0 C 4.8909466,5.9494743 5,6 5,6 L 4,6 C 4.1179,6.4731 3.2731906,6.6852094 3.0253906,6.2871094 2.9590167,6.1704036 2.9177621,6.0553267 2.890625,5.9414062 Z M 12,17 l 0,0.5 c 0.122,0.949 0.966,1.817 2,2 L 14,19 c -1.034,-0.183 -1.878,-1.051 -2,-2 z"/>
 </g>
</svg>

<svg xmlns="http://www.w3.org/2000/svg" width="24" height="24" version="1"><path style="opacity:.2" d="M1 1.5s0 4 .018 4.045c-.171 1.654.677 1.891 2.18 1.984.424-.028.777-.11 1.132-.437C4.892 6.416 5 6.5 5 6.5H4c.118.473-.727.685-.975.287C2.092 5.147 5.19 3.69 8 5l-.074 13.549C7.46 19.607 7.165 20.027 6 20.5v1c2.471-.786 5-1 8-1v-1c-1.034-.183-1.878-1.051-2-2v-12h4.176c.495.011.698-.156.824 1h2c-.559-1.309-.934-4-.934-4s-5.218.028-9.925-.248A84.883 84.883 0 0 1 1 1.5z" transform="translate(2.004 1)"/><path style="fill:#fecd38" d="M1 1s0 4 .018 4.045c-.171 1.654.677 1.891 2.18 1.984.424-.028.777-.11 1.132-.437C4.892 5.916 5 6 5 6H4c.118.473-.727.685-.975.287C2.092 4.647 5.19 3.19 8 4.5l-.074 13.549C7.46 19.107 7.165 19.527 6 20v1c2.471-.786 5-1 8-1v-1c-1.034-.183-1.878-1.051-2-2V5h4.176c.495.011.698-.156.824 1h2c-.559-1.309-.934-4-.934-4s-5.218.028-9.925-.248A84.883 84.883 0 0 1 1 1z" transform="translate(2.004 1)"/><path style="opacity:.2;fill:#fff" d="m1 1 .002.5c.003 0 3.435.535 7.139.752 4.707.276 9.925.248 9.925.248s.31 2.109.772 3.5H19c-.559-1.309-.934-4-.934-4s-5.218.028-9.925-.248A84.883 84.883 0 0 1 1 1zm6.998 3.998-.072 13.05C7.46 19.108 7.165 19.528 6 20v.5c1.165-.473 1.461-.893 1.926-1.951L8 5l-.002-.002zm-6.982.107a3.11 3.11 0 0 0-.002.575c.003-.048-.002-.085.004-.135-.002-.005 0-.351-.002-.44zm1.875.836c-.066.267-.032.553.134.846.1.16.297.2.489.186.074-.014.155-.017.226-.04.181-.079.31-.23.26-.433h.414C4.891 5.95 5 6 5 6H4c.118.473-.727.685-.975.287a1.296 1.296 0 0 1-.134-.346zM12 17v.5c.122.949.966 1.817 2 2V19c-1.034-.183-1.878-1.051-2-2z" transform="translate(2.004 1)"/></svg>
